shader_type canvas_item;

uniform sampler2D screen_texture: hint_screen_texture, repeat_disable, filter_nearest;

void fragment() {
	// Called for every pixel the material is visible on.
	COLOR = texture(screen_texture, SCREEN_UV);
	COLOR.rgb = vec3(COLOR.r + COLOR.g + COLOR.b) / 3.5;
}